public/assets/icons/brite-icon.svg

<svg xmlns="http://www.w3.org/2000/svg" width="40" height="40" viewBox="0 0 40 40">
  <defs>
    <style>
      .cls-1 {
        fill: #fff;
        opacity: 0;
      }

      .cls-2 {
        fill: #432af4;
      }
    </style>
  </defs>
  <title>brite-icon</title>
  <g id="Layer_2" data-name="Layer 2">
    <g id="Layer_2-2" data-name="Layer 2">
      <rect class="cls-1" width="40" height="40"/>
    </g>
    <g id="Layer_1-2" data-name="Layer 1">
      <g>
        <path class="cls-2" d="M33.86532,31.438a1.9256,1.9256,0,0,1,1.99873-.82816A1.52083,1.52083,0,0,1,36.514,30.88a1.92579,1.92579,0,0,1,.82627,1.99717,1.521,1.521,0,0,1-.2697.64941,1.92544,1.92544,0,0,1-1.99695.82723,1.52046,1.52046,0,0,1-.64837-.26866,1.92535,1.92535,0,0,1-.82894-1.99845A1.52045,1.52045,0,0,1,33.86532,31.438Zm2.60052.04621a1.41211,1.41211,0,0,0-1.31673-.38572,1.07262,1.07262,0,0,0-.43418.18113,1.41753,1.41753,0,0,0-.65874,1.20212,1.41551,1.41551,0,0,0,1.41212,1.41212,1.41753,1.41753,0,0,0,1.20212-.65874,1.0726,1.0726,0,0,0,.18113-.43419A1.4121,1.4121,0,0,0,36.46584,31.48423Zm-1.57221.01232h.509q.75525,0,.75531.5829a.50471.50471,0,0,1-.33659.51727l.36945.7389H35.7803l-.30377-.67322H35.2959v.67322h-.40227Zm.40227.36127v.45154h.10672a.79831.79831,0,0,0,.30377-.041q.09028-.041.09032-.18886t-.08618-.18472a.87762.87762,0,0,0-.30791-.03691Z"/>
        <g>
          <path class="cls-2" d="M26.16667,13.80024V5.7722A10.30194,10.30194,0,0,0,24.108,5.56577H15.87353A10.28453,10.28453,0,0,0,5.58047,15.85886v8.23449A10.3023,10.3023,0,0,0,5.78686,26.152h8.02806V13.80024Z"/>
          <path class="cls-2" d="M34.19469,13.80024h-8.028V26.152H13.81492V34.18a10.30147,10.30147,0,0,0,2.05861.20644H24.108a10.28476,10.28476,0,0,0,10.2931-10.2931V15.85886A10.3023,10.3023,0,0,0,34.19469,13.80024Z"/>
        </g>
      </g>
    </g>
  </g>
</svg>

<?xml version="1.0" encoding="utf-8"?>
<!-- Generator: Adobe Illustrator 24.0.0, SVG Export Plug-In . SVG Version: 6.00 Build 0)  -->
<svg version="1.1" id="Layer_1" xmlns="http://www.w3.org/2000/svg" xmlns:xlink="http://www.w3.org/1999/xlink" x="0px" y="0px"
	 viewBox="0 0 40 40" style="enable-background:new 0 0 40 40;" xml:space="preserve">
<style type="text/css">
	.st0{fill:#FFFFFF;fill-opacity:0;}
	.st1{fill:#432AF4;}
</style>
<title>brite-icon</title>
<g id="Layer_2_1_">
	<g id="Layer_2-2">
		<rect class="st0" width="40" height="40"/>
	</g>
	<g id="Layer_1-2">
		<g>
			<g>
				<path class="st1" d="M26.2,13.8v-8c-0.7-0.1-1.4-0.2-2.1-0.2h-8.2c-5.7,0-10.3,4.6-10.3,10.3c0,0,0,0,0,0v8.2
					c0,0.7,0.1,1.4,0.2,2.1h8V13.8H26.2z"/>
				<path class="st1" d="M34.2,13.8h-8v12.4H13.8v8c0.7,0.1,1.4,0.2,2.1,0.2h8.2c5.7,0,10.3-4.6,10.3-10.3c0,0,0,0,0,0v-8.2
					C34.4,15.2,34.3,14.5,34.2,13.8z"/>
			</g>
		</g>
	</g>
</g>
</svg>
